public/images/hashed/45821815659add3363a547b00ef58fe8.svg

<?xml version="1.0" encoding="UTF-8"?>
<svg width="80px" height="80px" viewBox="0 0 80 80" version="1.1" xmlns="http://www.w3.org/2000/svg" xmlns:xlink="http://www.w3.org/1999/xlink">
    <!-- Generator: Sketch 64 (93537) - https://sketch.com -->
    <title>Icon-Architecture/64/Arch_AWS-IoT-Core_64</title>
    <desc>Created with Sketch.</desc>
    <defs>
        <linearGradient x1="0%" y1="100%" x2="100%" y2="0%" id="linearGradient-1">
            <stop stop-color="#1B660F" offset="0%"></stop>
            <stop stop-color="#6CAE3E" offset="100%"></stop>
        </linearGradient>
    </defs>
    <g id="Icon-Architecture/64/Arch_AWS-IoT-Core_64" stroke="none" stroke-width="1" fill="none" fill-rule="evenodd">
        <g id="Icon-Architecture-BG/64/Internet-of-Things" fill="url(#linearGradient-1)">
            <rect id="Rectangle" x="0" y="0" width="80" height="80"></rect>
        </g>
        <path d="M57.4230047,47.906119 C57.4230047,46.7966471 56.5260469,45.8943839 55.4230988,45.8943839 C54.3201507,45.8943839 53.4231929,46.7966471 53.4231929,47.906119 C53.4231929,49.0155909 54.3201507,49.9178541 55.4230988,49.9178541 C56.5260469,49.9178541 57.4230047,49.0155909 57.4230047,47.906119 M54.0631628,51.6740989 C52.8372204,51.2244761 51.8972646,50.1954736 51.5662802,48.9119866 L49.423381,48.9119866 L49.423381,56.9830679 C51.3622898,55.8182733 53.0952083,53.8507963 54.0631628,51.6740989 M47.423475,57.8772842 L47.423475,47.906119 C47.423475,47.3508801 47.870454,46.9002515 48.423428,46.9002515 L51.5662802,46.9002515 C51.8982646,45.6137469 52.8412202,44.5837385 54.0691625,44.1361274 C52.9622145,41.595306 50.6913213,39.3099749 48.1724398,38.2015088 C47.7274607,39.4387259 46.702509,40.387259 45.4235691,40.7222129 L45.4235691,58.2766136 C46.1095368,58.2102263 46.7805053,58.0724225 47.423475,57.8772842 M43.4236632,58.2756077 L43.4236632,40.7222129 C42.1467232,40.3882649 41.1227714,39.4407376 40.6767924,38.2055323 C38.1529111,39.3280805 35.8830178,41.6113998 34.7780698,44.1361274 C36.007012,44.5847443 36.9489677,45.6137469 37.2809521,46.9002515 L40.4238043,46.9002515 C40.9767782,46.9002515 41.4237572,47.3508801 41.4237572,47.906119 L41.4237572,57.8541492 C42.0807263,58.0643755 42.7436951,58.2082146 43.4236632,58.2756077 M39.4238513,56.9418273 L39.4238513,48.9119866 L37.2809521,48.9119866 C36.9499676,50.1954736 36.0110118,51.2234702 34.7860694,51.6740989 C35.7460243,53.8176027 37.4769429,55.7639564 39.4238513,56.9418273 M33.4241335,49.9178541 C34.5270816,49.9178541 35.4240394,49.0155909 35.4240394,47.906119 C35.4240394,46.7966471 34.5270816,45.8943839 33.4241335,45.8943839 C32.3211853,45.8943839 31.4242275,46.7966471 31.4242275,47.906119 C31.4242275,49.0155909 32.3211853,49.9178541 33.4241335,49.9178541 M42.4237102,36.8415759 C42.4237102,37.9510478 43.320668,38.853311 44.4236161,38.853311 C45.5265643,38.853311 46.4235221,37.9510478 46.4235221,36.8415759 C46.4235221,35.7321039 45.5265643,34.8298407 44.4236161,34.8298407 C43.320668,34.8298407 42.4237102,35.7321039 42.4237102,36.8415759 M59.4229107,47.906119 C59.4229107,49.8796312 58.0009776,51.5181894 56.1340654,51.8571668 C54.9171226,55.0578374 52.3372439,57.8994132 49.423381,59.2472758 L49.423381,64 L47.423475,64 L47.423475,59.9584241 C46.7725057,60.1223806 46.1025372,60.2370495 45.4235691,60.2923722 L45.4235691,64 L43.4236632,64 L43.4236632,60.2923722 C42.746695,60.2360436 42.0797264,60.1163453 41.4237572,59.9453479 L41.4237572,64 L39.4238513,64 L39.4238513,59.2130763 C36.4969889,57.8390612 33.9201101,55.0176027 32.7141669,51.8571668 C30.8472547,51.5181894 29.4243216,49.8796312 29.4243216,47.906119 C29.4243216,45.9336127 30.8442548,44.2960604 32.7091671,43.9550712 C33.9851071,40.4958927 37.0409634,37.4209556 40.4958009,36.1243923 C40.833785,34.2484493 42.4617084,32.8181056 44.4236161,32.8181056 C46.3845239,32.8181056 48.0114474,34.2464376 48.3514314,36.1203688 C51.8002692,37.3998324 54.8591253,40.4747695 56.1380652,43.9550712 C58.0029775,44.2970662 59.4229107,45.9346186 59.4229107,47.906119 M64.9986484,38.4740989 C65.0436463,41.2110645 63.9626972,43.8665549 62.1077844,45.6217938 L60.7378488,44.1552389 C62.1897805,42.7832355 63.0337409,40.6880134 62.9977425,38.5515507 C62.9987425,34.4284996 59.9888841,31.0950545 55.9980718,30.7208718 C55.461097,30.6695725 55.0601159,30.1998324 55.0931143,29.6576697 L55.1011139,29.5389774 C55.1061137,29.4705784 55.1111135,29.4021794 55.1111135,29.3307628 C55.1111135,26.6893546 52.9882133,24.5408215 50.3783361,24.5408215 C49.1573935,24.5408215 47.998448,25.0125733 47.1134896,25.8685666 C46.8705011,26.1029338 46.5235174,26.1964795 46.1985327,26.124057 C45.8705481,26.0496228 45.6025607,25.8132439 45.4845662,25.4953898 C43.8196445,21.0192791 39.5348461,18.0117351 34.8220677,18.0117351 C28.5373633,18.0117351 23.4246038,23.184912 23.4246038,29.5450126 C23.4246038,29.9795474 23.1466168,30.3708298 22.7356362,30.506622 C19.3047975,31.6341995 16.9999059,34.8449288 16.9999059,38.4952221 C16.9999059,43.129254 20.7257307,46.9002515 25.3055153,46.9002515 L25.4245097,46.9002515 L25.4245097,48.9119866 L25.3055153,48.9119866 C19.6227826,48.9119866 15,44.2387259 15,38.4952221 C15,34.2142498 17.5618795,30.4211232 21.4436969,28.8409053 C21.8096797,21.6952221 27.6704041,16 34.8220677,16 C39.9178281,16 44.5876084,18.9864208 46.8255032,23.5550712 C47.8844534,22.8871752 49.1083958,22.5290863 50.3783361,22.5290863 C53.9291691,22.5290863 56.8470318,25.3203688 57.0950202,28.8459346 C61.6598055,29.7069573 64.9986484,33.696228 64.9986484,38.4740989" id="AWS-IoT-Core_Icon_64_Squid" fill="#FFFFFF"></path>
    </g>
</svg>

<svg xmlns="http://www.w3.org/2000/svg" width="80" height="80"><defs><linearGradient id="a" x1="0%" x2="100%" y1="100%" y2="0%"><stop offset="0%" stop-color="#1B660F"/><stop offset="100%" stop-color="#6CAE3E"/></linearGradient></defs><g fill="none" fill-rule="evenodd"><path fill="url(#a)" d="M0 0h80v80H0z"/><path fill="#FFF" d="M57.423 47.906c0-1.11-.897-2.012-2-2.012s-2 .903-2 2.012c0 1.11.897 2.012 2 2.012s2-.902 2-2.012m-3.36 3.768a4.008 4.008 0 0 1-2.497-2.762h-2.143v8.071c1.94-1.165 3.672-3.132 4.64-5.309m-6.64 6.203v-9.97c0-.556.447-1.007 1-1.007h3.143a4.007 4.007 0 0 1 2.503-2.764c-1.107-2.54-3.378-4.826-5.897-5.934a4.004 4.004 0 0 1-2.748 2.52v17.555a10.319 10.319 0 0 0 2-.4m-4 .399V40.722a4.004 4.004 0 0 1-2.747-2.516c-2.524 1.122-4.794 3.405-5.899 5.93a4.007 4.007 0 0 1 2.503 2.764h3.143c.553 0 1 .45 1 1.006v9.948c.657.21 1.32.354 2 .422m-4-1.334v-8.03H37.28a4.009 4.009 0 0 1-2.495 2.762c.96 2.144 2.69 4.09 4.638 5.268m-6-7.024c1.103 0 2-.902 2-2.012 0-1.11-.897-2.012-2-2.012s-2 .903-2 2.012c0 1.11.897 2.012 2 2.012m9-13.076c0 1.109.897 2.011 2 2.011s2-.902 2-2.011c0-1.11-.897-2.012-2-2.012s-2 .902-2 2.012m16.999 11.064a4.016 4.016 0 0 1-3.289 3.951c-1.217 3.2-3.797 6.042-6.71 7.39V64h-2v-4.042c-.651.164-1.321.279-2 .334V64h-2v-3.708a11.803 11.803 0 0 1-2-.347V64h-2v-4.787c-2.927-1.374-5.504-4.195-6.71-7.356a4.017 4.017 0 0 1-.005-7.902c1.276-3.46 4.332-6.534 7.787-7.83.338-1.877 1.966-3.307 3.928-3.307 1.96 0 3.587 1.428 3.927 3.302 3.45 1.28 6.508 4.355 7.787 7.835a4.019 4.019 0 0 1 3.285 3.951m5.576-9.432c.045 2.737-1.036 5.393-2.891 7.148l-1.37-1.467c1.452-1.372 2.296-3.467 2.26-5.603 0-4.124-3.01-7.457-7-7.831a1.005 1.005 0 0 1-.905-1.063l.008-.119c.005-.068.01-.137.01-.208 0-2.642-2.123-4.79-4.733-4.79-1.22 0-2.38.472-3.265 1.328a.999.999 0 0 1-1.629-.373c-1.664-4.477-5.95-7.484-10.662-7.484-6.285 0-11.397 5.173-11.397 11.533 0 .435-.278.826-.69.962C19.306 31.634 17 34.845 17 38.495c0 4.634 3.726 8.405 8.306 8.405h.119v2.012h-.12C19.624 48.912 15 44.239 15 38.495c0-4.28 2.562-8.074 6.444-9.654C21.81 21.695 27.67 16 34.822 16c5.096 0 9.766 2.986 12.004 7.555a6.641 6.641 0 0 1 3.552-1.026c3.551 0 6.469 2.791 6.717 6.317 4.565.861 7.904 4.85 7.904 9.628"/></g></svg>
